src/assets/tiles/type1.svg

<?xml version="1.0" encoding="UTF-8"?>
<!DOCTYPE svg PUBLIC "-//W3C//DTD SVG 1.1//EN" "http://www.w3.org/Graphics/SVG/1.1/DTD/svg11.dtd">
<!-- Creator: CorelDRAW -->
<svg xmlns="http://www.w3.org/2000/svg" xml:space="preserve" width="25mm" height="25mm" style="shape-rendering:geometricPrecision; text-rendering:geometricPrecision; image-rendering:optimizeQuality; fill-rule:evenodd; clip-rule:evenodd"
viewBox="0 0 0.78709 0.78709"
 xmlns:xlink="http://www.w3.org/1999/xlink">
 <defs>
  <style type="text/css">
   <![CDATA[
    .fil2 {fill:blue}
    .fil0 {fill:gray}
    .fil1 {fill:#c6c6c6}
   ]]>
  </style>
 </defs>
 <g id="Layer_x0020_1">
  <metadata id="CorelCorpID_0Corel-Layer"/>
  <rect class="fil0" width="0.78709" height="0.78709"/>
  <rect class="fil1" x="0.0480484" y="0.0480484" width="0.73904" height="0.73904"/>
  <path class="fil2" d="M0.237068 0.65723l0.34206 -8.81541e-005 -5.35221e-005 -0.0959526 -0.098465 -2.20385e-005 -6.29672e-006 -0.393611c-0.0323211,-5.03738e-005 -0.0646421,-0.000103896 -0.0969601,-0.000157418 -0.0222369,0.0789798 -0.0769459,0.121426 -0.146405,0.147265l-0.000368358 0.0471561 0.0985468 -3.14836e-006 -0.000371507 0.199043 -0.0990285 -0.000412435 0.00105155 0.0967838z"/>
 </g>
</svg>

<svg xmlns="http://www.w3.org/2000/svg" xml:space="preserve" width="25mm" height="25mm" style="shape-rendering:geometricPrecision;text-rendering:geometricPrecision;image-rendering:optimizeQuality;fill-rule:evenodd;clip-rule:evenodd" viewBox="0 0 0.787 0.787"><path style="fill:gray" d="M0 0h.787v.787H0z"/><path style="fill:#c6c6c6" d="M.048.048h.739v.739H.048z"/><path d="M.237.657H.58V.561H.481V.168H.384C.36.245.307.287.237.314v.047h.098V.56H.236l.001.096z" style="fill:#00f"/></svg>
